printer-off-outline.svg

<svg fill="currentColor" viewBox="0 0 24 24"><path d="m1.41 1.6 20.95 20.95-1.41 1.41L18 21H6v-4H2v-6c0-1.66 1.34-3 3-3L0 3zM6 15v-2h4l-3-3H5c-.55 0-1 .45-1 1v4zm2 4h8l-4-4H8zM8 5v.36l-2-2V3h12v5h1c1.66 0 3 1.34 3 3v6h-2.34l-4-4H18v2h2v-4c0-.55-.45-1-1-1h-6.34l-2-2H16V5zm11 6.5c0 .56-.45 1-1 1s-1-.44-1-1c0-.54.45-1 1-1s1 .46 1 1"/></svg>

<svg  viewBox="0 0 24 24" fill="currentColor"><path  d="M1.41 1.6L22.36 22.55L20.95 23.96L18 21H6V17H2V11C2 9.34 3.34 8 5 8L0 3L1.41 1.6M6 15V13H10L7 10H5C4.45 10 4 10.45 4 11V15H6M8 19H16L12 15H8V19M8 5V5.36L6 3.36V3H18V8H19C20.66 8 22 9.34 22 11V17H19.66L15.66 13H18V15L20 15V11C20 10.45 19.55 10 19 10H12.66L10.66 8H16V5H8M19 11.5C19 12.06 18.55 12.5 18 12.5C17.45 12.5 17 12.06 17 11.5C17 10.96 17.45 10.5 18 10.5C18.55 10.5 19 10.96 19 11.5Z"/></svg>
